Yaru++/mimetypes/scalable/text-x-arduino.svg

<svg height="256" viewBox="0 0 67.73 67.73" width="256" xmlns="http://www.w3.org/2000/svg" xmlns:xlink="http://www.w3.org/1999/xlink"><linearGradient id="a" gradientUnits="userSpaceOnUse" x1="88" x2="488" y1="88" y2="488"><stop offset="0" stop-opacity=".588235"/><stop offset=".88" stop-opacity="0"/><stop offset="1"/></linearGradient><filter id="b" color-interpolation-filters="sRGB" height="1.087725" width="1.105998" x="-.052999" y="-.043863"><feGaussianBlur stdDeviation="8.4801079"/></filter><filter id="c" color-interpolation-filters="sRGB" height="1.021931" width="1.0265" x="-.01325" y="-.010966"><feGaussianBlur stdDeviation="2.120027"/></filter><path d="m189.84323 74c-70.59344 0-78.18921 7.250835-77.84323 77.98706v146.01294 146.01294c-.34598 70.73623 7.24979 77.98706 77.84323 77.98706h196.31354c70.59344 0 76.00668-7.27384 77.84323-77.98706v-146.01294-146.01294c0-70.737067-7.24979-77.98706-77.84323-77.98706z" filter="url(#c)" opacity=".1" transform="matrix(.13228516 0 0 .13228516 -4.409451 -6.038882)"/><path d="m189.84323 74c-70.59344 0-78.18921 7.250835-77.84323 77.98706v146.01294 146.01294c-.34598 70.73623 7.24979 77.98706 77.84323 77.98706h196.31354c70.59344 0 77.84323-7.24999 77.84323-77.98706v-146.01294-146.01294c0-70.737067-7.24979-77.98706-77.84323-77.98706z" fill="url(#a)" filter="url(#b)" opacity=".3" transform="matrix(.13228516 0 0 .13228516 -4.409451 -6.038882)"/><path d="m46.671928 3.48565c9.338467 0 10.343273.9591779 10.297505 10.316531v19.315344 19.315344c.04577 9.357355-.959038 10.316531-10.297505 10.316531h-25.969365c-9.338464 0-10.297505-.959068-10.297505-10.316531v-19.315344-19.315344c0-9.3574645.959041-10.316531 10.297505-10.316531z" fill="#0ca1a6"/><g fill="#fff"><path d="m49.563369 33.117522c0-4.368913-3.524338-7.937707-7.804353-7.937707-.40006 0-.803294.04763-1.203356.09525-3.343362.517537-5.575444 3.054427-6.867703 4.978531-1.247808-1.927273-3.524341-4.508616-6.867702-4.978528-.400063-.04763-.803298-.09525-1.203357-.09525-4.324465 0-7.804355 3.568794-7.804355 7.937707 0 4.368913 3.524341 7.937708 7.804355 7.937708.400059 0 .803294-.04763 1.203357-.09525 3.343361-.517536 5.575442-3.054427 6.867702-4.97853 1.247809 1.971726 3.479888 4.508619 6.867703 4.97853.400062.04763.803296.09525 1.203356.09525 4.280015 0 7.804353-3.521169 7.804353-7.937708zm-23.098725 5.073784c-.266707.04762-.53659.04762-.847746.04762-2.854402 0-5.127759-2.301934-5.127759-5.118232 0-2.819475 2.317809-5.118234 5.127759-5.118234.266704 0 .536587.04763.847746.04763 3.165558.469914 5.083308 3.756123 5.75325 5.073781-.669942 1.314486-2.587692 4.60387-5.75325 5.073781zm8.696552-5.073784c.669942-1.314486 2.587693-4.60387 5.75325-5.073784.266706-.04762.536586-.04762.847745-.04762 2.854398 0 5.127761 2.301933 5.127761 5.118229 0 2.819478-2.317813 5.118237-5.127761 5.118237-.266706 0-.536586 0-.847745-.04763-3.165557-.469914-5.083308-3.756123-5.75325-5.073781z" opacity=".7" stroke-width="3.175082"/><path d="m21.523886 31.797316v2.646849h8.988988v-2.646849z" stroke-width="2.816176"/><path d="m37.394463 31.799219v2.709313l.0026-.06543 2.903201.0026c-.0044.741849-.0011 1.776814.0016 2.643565.895328.0044 1.730444.01013 2.648407-.0021l-.0019-2.646666 2.908406-.000034v-2.641102l-2.905625.0026-.0026-2.653579-2.641454.0026-.0026 2.651156z" stroke-width="2.764498"/><path d="m33.688674 3.48565v59.26375h12.984614c9.338464 0 10.054627-.962123 10.297574-10.316435v-19.31544-19.315441c0-9.3574643-.95911-10.316434-10.297574-10.316434z" opacity=".08"/><path d="m10.406486 33.117525v19.31544c-.04577 9.357354.959108 10.316435 10.297574 10.316435h25.969228c9.338464 0 10.054627-.962123 10.297574-10.316435v-19.31544z" opacity=".08"/><path d="m41.096643 62.7494 15.874219-15.874219v5.948567c-.01384 8.994282-1.006077 9.925652-10.099734 9.925652z" opacity=".204"/></g><path d="m10.406486 51.903567v.529141c-.04577 9.357355.959107 10.316692 10.297574 10.316692h25.969228c9.338464 0 10.054627-.96238 10.297574-10.316692v-.529141c-.242947 9.354312-.95911 10.316692-10.297574 10.316692h-25.969228c-9.338467 0-10.343343-.959337-10.297574-10.316692z" opacity=".2"/><path d="m20.70406 3.48565c-9.338467 0-10.343343.9593396-10.297574 10.316692v.529141c-.04577-9.3573528.959107-10.3166924 10.297574-10.3166924h25.969228c9.338467 0 10.297574.9592282 10.297574 10.3166924v-.529141c0-9.3574638-.959107-10.316692-10.297574-10.316692z" fill="#fff" opacity=".4"/></svg>

<?xml version="1.0" encoding="UTF-8" standalone="no"?>
<svg
   xmlns:dc="http://purl.org/dc/elements/1.1/"
   xmlns:cc="http://creativecommons.org/ns#"
   xmlns:rdf="http://www.w3.org/1999/02/22-rdf-syntax-ns#"
   xmlns:svg="http://www.w3.org/2000/svg"
   xmlns="http://www.w3.org/2000/svg"
   xmlns:xlink="http://www.w3.org/1999/xlink"
   xmlns:sodipodi="http://sodipodi.sourceforge.net/DTD/sodipodi-0.dtd"
   xmlns:inkscape="http://www.inkscape.org/namespaces/inkscape"
   height="256"
   viewBox="0 0 67.73 67.73"
   width="256"
   version="1.1"
   id="svg42"
   sodipodi:docname="4.svg"
   inkscape:version="0.92.5 (2060ec1f9f, 2020-04-08)">
  <metadata
     id="metadata48">
    <rdf:RDF>
      <cc:Work
         rdf:about="">
        <dc:format>image/svg+xml</dc:format>
        <dc:type
           rdf:resource="http://purl.org/dc/dcmitype/StillImage" />
        <dc:title></dc:title>
      </cc:Work>
    </rdf:RDF>
  </metadata>
  <defs
     id="defs46">
    <linearGradient
       inkscape:collect="always"
       xlink:href="#linearGradient4360"
       id="linearGradient4358"
       x1="88"
       y1="88"
       x2="488"
       y2="488"
       gradientUnits="userSpaceOnUse" />
    <linearGradient
       id="linearGradient4360"
       inkscape:collect="always">
      <stop
         id="stop4362"
         offset="0"
         style="stop-color:#000000;stop-opacity:0.58823532" />
      <stop
         style="stop-color:#000000;stop-opacity:0"
         offset="0.88"
         id="stop4364" />
      <stop
         id="stop4366"
         offset="1"
         style="stop-color:#000000;stop-opacity:1" />
    </linearGradient>
    <filter
       inkscape:collect="always"
       style="color-interpolation-filters:sRGB"
       id="filter4380"
       x="-0.052999184"
       width="1.1059984"
       y="-0.043862626"
       height="1.0877253">
      <feGaussianBlur
         inkscape:collect="always"
         stdDeviation="8.4801079"
         id="feGaussianBlur4382" />
    </filter>
    <filter
       inkscape:collect="always"
       style="color-interpolation-filters:sRGB"
       id="filter4346"
       x="-0.013249796"
       width="1.0264996"
       y="-0.010965657"
       height="1.0219313">
      <feGaussianBlur
         inkscape:collect="always"
         stdDeviation="2.120027"
         id="feGaussianBlur4348" />
    </filter>
  </defs>
  <sodipodi:namedview
     pagecolor="#ffffff"
     bordercolor="#666666"
     borderopacity="1"
     objecttolerance="10"
     gridtolerance="10"
     guidetolerance="10"
     inkscape:pageopacity="0"
     inkscape:pageshadow="2"
     inkscape:window-width="1920"
     inkscape:window-height="1016"
     id="namedview44"
     showgrid="false"
     inkscape:zoom="3.4639785"
     inkscape:cx="127.33085"
     inkscape:cy="129.82524"
     inkscape:window-x="0"
     inkscape:window-y="27"
     inkscape:window-maximized="1"
     inkscape:current-layer="svg42" />
  <linearGradient
     id="a"
     gradientTransform="matrix(0 -.11988342 .11987999 0 .362762 292.01605)"
     gradientUnits="userSpaceOnUse"
     x1="529.65515"
     x2="-35.310345"
     y1="401.58368"
     y2="119.09284">
    <stop
       offset="0"
       stop-color="#f2f2f2"
       id="stop2" />
    <stop
       offset="1"
       stop-color="#f9f9f9"
       id="stop4" />
  </linearGradient>
  <linearGradient
     id="b"
     gradientUnits="userSpaceOnUse"
     x1="88"
     x2="488"
     y1="88"
     y2="488">
    <stop
       offset="0"
       stop-opacity=".588235"
       id="stop7" />
    <stop
       offset=".88"
       stop-opacity="0"
       id="stop9" />
    <stop
       offset="1"
       id="stop11" />
  </linearGradient>
  <filter
     id="c"
     color-interpolation-filters="sRGB"
     height="1.087725"
     width="1.105998"
     x="-.052999"
     y="-.043863">
    <feGaussianBlur
       stdDeviation="8.4801079"
       id="feGaussianBlur14" />
  </filter>
  <filter
     id="d"
     color-interpolation-filters="sRGB"
     height="1.021931"
     width="1.0265"
     x="-.01325"
     y="-.010966">
    <feGaussianBlur
       stdDeviation="2.120027"
       id="feGaussianBlur17" />
  </filter>
  <path
     style="color:#000000;display:inline;overflow:visible;visibility:visible;opacity:0.1;fill:#000000;fill-opacity:1;fill-rule:nonzero;stroke:none;stroke-width:2;marker:none;filter:url(#filter4346);enable-background:accumulate"
     d="M 189.84323,74 C 119.24979,74 111.65402,81.250835 112,151.98706 V 298 444.01294 C 111.65402,514.74917 119.24979,522 189.84323,522 H 386.15677 C 456.75021,522 462.16345,514.72616 464,444.01294 V 298 151.98706 C 464,81.249993 456.75021,74 386.15677,74 Z"
     id="rect4158-9"
     inkscape:connector-curvature="0"
     sodipodi:nodetypes="scccssscsss"
     transform="matrix(0.13228516,0,0,0.13228516,-4.4094514,-6.0388816)" />
  <path
     sodipodi:nodetypes="scccssscsss"
     inkscape:connector-curvature="0"
     id="path4350"
     d="M 189.84323,74 C 119.24979,74 111.65402,81.250835 112,151.98706 V 298 444.01294 C 111.65402,514.74917 119.24979,522 189.84323,522 H 386.15677 C 456.75021,522 464,514.75001 464,444.01294 V 298 151.98706 C 464,81.249993 456.75021,74 386.15677,74 Z"
     style="color:#000000;display:inline;overflow:visible;visibility:visible;opacity:0.3;fill:url(#linearGradient4358);fill-opacity:1;fill-rule:nonzero;stroke:none;stroke-width:2;marker:none;filter:url(#filter4380);enable-background:accumulate"
     transform="matrix(0.13228516,0,0,0.13228516,-4.4094514,-6.0388816)" />
  <path
     style="color:#000000;display:inline;overflow:visible;visibility:visible;fill:#0ca1a6;fill-opacity:1;fill-rule:nonzero;stroke:none;stroke-width:0.26457033;marker:none;enable-background:accumulate"
     d="m 46.671928,3.48565 c 9.338467,0 10.343273,0.9591779 10.297505,10.316531 V 33.117525 52.432869 C 57.015203,61.790224 56.010395,62.7494 46.671928,62.7494 H 20.702563 c -9.338464,0 -10.297505,-0.959068 -10.297505,-10.316531 V 33.117525 13.802181 c 0,-9.3574645 0.959041,-10.316531 10.297505,-10.316531 z"
     id="rect4158"
     inkscape:connector-curvature="0"
     sodipodi:nodetypes="scccssscsss" />
  <path
     id="path8-6"
     style="display:inline;opacity:0.7;fill:#ffffff;stroke-width:3.17508245;enable-background:new"
     d="m 49.563369,33.117522 c 0,-4.368913 -3.524338,-7.937707 -7.804353,-7.937707 v 0 c -0.40006,0 -0.803294,0.04763 -1.203356,0.09525 v 0 c -3.343362,0.517537 -5.575444,3.054427 -6.867703,4.978531 v 0 C 32.440149,28.326323 30.163616,25.74498 26.820255,25.275068 v 0 c -0.400063,-0.04763 -0.803298,-0.09525 -1.203357,-0.09525 v 0 c -4.324465,0 -7.804355,3.568794 -7.804355,7.937707 v 0 c 0,4.368913 3.524341,7.937708 7.804355,7.937708 v 0 c 0.400059,0 0.803294,-0.04763 1.203357,-0.09525 v 0 c 3.343361,-0.517536 5.575442,-3.054427 6.867702,-4.97853 v 0 c 1.247809,1.971726 3.479888,4.508619 6.867703,4.97853 v 0 c 0.400062,0.04763 0.803296,0.09525 1.203356,0.09525 v 0 c 4.280015,0 7.804353,-3.521169 7.804353,-7.937708 z m -23.098725,5.073784 c -0.266707,0.04762 -0.53659,0.04762 -0.847746,0.04762 v 0 c -2.854402,0 -5.127759,-2.301934 -5.127759,-5.118232 v 0 c 0,-2.819475 2.317809,-5.118234 5.127759,-5.118234 v 0 c 0.266704,0 0.536587,0.04763 0.847746,0.04763 v 0 c 3.165558,0.469914 5.083308,3.756123 5.75325,5.073781 v 0 c -0.669942,1.314486 -2.587692,4.60387 -5.75325,5.073781 v 0 z m 8.696552,-5.073784 c 0.669942,-1.314486 2.587693,-4.60387 5.75325,-5.073784 v 0 c 0.266706,-0.04762 0.536586,-0.04762 0.847745,-0.04762 v 0 c 2.854398,0 5.127761,2.301933 5.127761,5.118229 v 0 c 0,2.819478 -2.317813,5.118237 -5.127761,5.118237 v 0 c -0.266706,0 -0.536586,0 -0.847745,-0.04763 v 0 c -3.165557,-0.469914 -5.083308,-3.756123 -5.75325,-5.073781 v 0 z"
     inkscape:connector-curvature="0" />
  <path
     id="path10"
     style="display:inline;fill:#ffffff;stroke-width:2.81617594;enable-background:new"
     d="m 21.523886,31.797316 v 0 2.646849 h 8.988988 v 0 -2.646849 0 z"
     inkscape:connector-curvature="0" />
  <path
     id="path12"
     style="display:inline;fill:#ffffff;stroke-width:2.764498;enable-background:new"
     d="m 37.394463,31.799219 v 2.709313 l 0.0026,-0.06543 2.903201,0.0026 c -0.0044,0.741849 -0.0011,1.776814 0.0016,2.643565 0.895328,0.0044 1.730444,0.01013 2.648407,-0.0021 l -0.0019,-2.646666 2.908406,-3.4e-5 v -2.641102 l -2.905625,0.0026 -0.0026,-2.653579 -2.641454,0.0026 -0.0026,2.651156 z"
     inkscape:connector-curvature="0"
     sodipodi:nodetypes="cccccccccccccc" />
  <path
     style="color:#000000;display:inline;overflow:visible;visibility:visible;opacity:0.07999998;fill:#ffffff;fill-opacity:1;fill-rule:nonzero;stroke:none;stroke-width:0.26457033;marker:none;enable-background:accumulate"
     d="M 33.688674,3.48565 V 62.7494 h 12.984614 c 9.338464,0 10.054627,-0.962123 10.297574,-10.316435 V 33.117525 13.802084 c 0,-9.3574643 -0.95911,-10.316434 -10.297574,-10.316434 z"
     id="path4231"
     inkscape:connector-curvature="0"
     sodipodi:nodetypes="ccsscssc" />
  <path
     inkscape:connector-curvature="0"
     style="color:#000000;display:inline;overflow:visible;visibility:visible;opacity:0.07999998;fill:#ffffff;fill-opacity:1;fill-rule:nonzero;stroke:none;stroke-width:0.26457033;marker:none;enable-background:accumulate"
     d="m 10.406486,33.117525 v 19.31544 C 10.360716,61.790319 11.365594,62.7494 20.70406,62.7494 h 25.969228 c 9.338464,0 10.054627,-0.962123 10.297574,-10.316435 v -19.31544 z"
     id="path4255"
     sodipodi:nodetypes="ccssscc" />
  <path
     style="color:#000000;display:inline;overflow:visible;visibility:visible;opacity:0.20400002;fill:#ffffff;fill-opacity:1;fill-rule:nonzero;stroke:none;stroke-width:2.11656237;stroke-linecap:butt;stroke-linejoin:miter;stroke-miterlimit:4;stroke-dasharray:none;stroke-dashoffset:0;stroke-opacity:1;marker:none;enable-background:accumulate"
     d="M 41.096643,62.7494 56.970862,46.875181 v 5.948567 C 56.957022,61.81803 55.964785,62.7494 46.871128,62.7494 Z"
     id="path4254"
     inkscape:connector-curvature="0"
     sodipodi:nodetypes="cccsc" />
  <path
     style="color:#000000;display:inline;overflow:visible;visibility:visible;opacity:0.2;fill:#000000;fill-opacity:1;fill-rule:nonzero;stroke:none;stroke-width:0.26457033;marker:none;enable-background:accumulate"
     d="m 10.406486,51.903567 v 0.529141 C 10.360716,61.790063 11.365593,62.7494 20.70406,62.7494 h 25.969228 c 9.338464,0 10.054627,-0.96238 10.297574,-10.316692 v -0.529141 c -0.242947,9.354312 -0.95911,10.316692 -10.297574,10.316692 H 20.70406 c -9.338467,0 -10.343343,-0.959337 -10.297574,-10.316692 z"
     id="path945"
     inkscape:connector-curvature="0" />
  <path
     style="color:#000000;display:inline;overflow:visible;visibility:visible;opacity:0.4;fill:#ffffff;fill-opacity:1;fill-rule:nonzero;stroke:none;stroke-width:0.26457033;marker:none;enable-background:accumulate"
     d="m 20.70406,3.48565 c -9.338467,0 -10.343343,0.9593396 -10.297574,10.316692 v 0.529141 C 10.360716,4.9741302 11.365593,4.0147906 20.70406,4.0147906 h 25.969228 c 9.338467,0 10.297574,0.9592282 10.297574,10.3166924 v -0.529141 c 0,-9.3574638 -0.959107,-10.316692 -10.297574,-10.316692 z"
     id="path931"
     inkscape:connector-curvature="0" />
</svg>
